icons/themes/default/id-back.svg

<svg width="24" height="24" viewBox="0 0 24 24" fill="none" xmlns="http://www.w3.org/2000/svg">
<path d="M17.3809 14.3633C17.6771 14.4238 17.9004 14.6858 17.9004 15C17.9004 15.3142 17.6771 15.5762 17.3809 15.6367L17.25 15.6504H6.75C6.39101 15.6504 6.09961 15.359 6.09961 15C6.09961 14.641 6.39101 14.3496 6.75 14.3496H17.25L17.3809 14.3633Z" fill="currentColor"/>
<path d="M17.3809 11.3633C17.6771 11.4238 17.9004 11.6858 17.9004 12C17.9004 12.3142 17.6771 12.5762 17.3809 12.6367L17.25 12.6504H6.75C6.39101 12.6504 6.09961 12.359 6.09961 12C6.09961 11.641 6.39101 11.3496 6.75 11.3496H17.25L17.3809 11.3633Z" fill="currentColor"/>
<path d="M17.3809 8.36328C17.6771 8.42385 17.9004 8.68585 17.9004 9C17.9004 9.31415 17.6771 9.57615 17.3809 9.63672L17.25 9.65039H15C14.641 9.65039 14.3496 9.35899 14.3496 9C14.3496 8.64101 14.641 8.34961 15 8.34961H17.25L17.3809 8.36328Z" fill="currentColor"/>
<path fill-rule="evenodd" clip-rule="evenodd" d="M18.5176 4.59961C20.2694 4.5998 21.6503 6.06345 21.6504 7.82129V16.1787C21.6503 17.9365 20.2694 19.4002 18.5176 19.4004H5.48242C3.73061 19.4002 2.34968 17.9365 2.34961 16.1787V7.82129C2.34968 6.06345 3.73061 4.5998 5.48242 4.59961H18.5176ZM5.48242 5.90039C4.49118 5.90058 3.65046 6.73806 3.65039 7.82129V16.1787C3.65046 17.2619 4.49118 18.0994 5.48242 18.0996H18.5176C19.5088 18.0994 20.3495 17.2619 20.3496 16.1787V7.82129C20.3495 6.73806 19.5088 5.90058 18.5176 5.90039H5.48242Z" fill="currentColor"/>
</svg>

<svg xmlns="http://www.w3.org/2000/svg" fill="none" viewBox="0 0 24 24">
  <path fill="currentColor" d="M17.38 14.363a.65.65 0 0 1 0 1.274l-.13.013H6.75a.65.65 0 0 1 0-1.3h10.5l.13.013ZM17.38 11.363a.65.65 0 0 1 0 1.274l-.13.013H6.75a.65.65 0 0 1 0-1.3h10.5l.13.013ZM17.38 8.363a.65.65 0 0 1 0 1.274l-.13.013H15a.65.65 0 0 1 0-1.3h2.25l.13.013Z"/>
  <path fill="currentColor" fill-rule="evenodd" d="M18.518 4.6c1.751 0 3.132 1.463 3.132 3.221v8.358c0 1.758-1.38 3.221-3.132 3.221H5.482c-1.751 0-3.132-1.463-3.132-3.221V7.82C2.35 6.063 3.73 4.6 5.482 4.6h13.036ZM5.482 5.9c-.99 0-1.832.838-1.832 1.921v8.358c0 1.083.841 1.92 1.832 1.92h13.036c.99 0 1.831-.837 1.832-1.92V7.82c0-1.083-.841-1.92-1.832-1.92H5.482Z" clip-rule="evenodd"/>
</svg>
